tn/cup-outline.svg

<svg viewBox="0 0 15 15" fill="none" xmlns="http://www.w3.org/2000/svg" height="1em" width="1em">
  <path d="M11.5 6.5V11.5C11.5 13.1569 10.1569 14.5 8.5 14.5H3.5C1.84315 14.5 0.5 13.1569 0.5 11.5V6.5C0.5 5.94772 0.947715 5.5 1.5 5.5H10.5C11.0523 5.5 11.5 5.94772 11.5 6.5ZM11.5 6.5H13.5C14.0523 6.5 14.5 6.94772 14.5 7.5V9.5C14.5 10.0523 14.0523 10.5 13.5 10.5H11.5M4.5 4V2M7.5 4V0" stroke="black"/>
</svg>

<svg viewBox="0 0 15 15" fill="none" xmlns="http://www.w3.org/2000/svg" height="1em" width="1em">
  <path d="M11.5 6.5v5a3 3 0 0 1-3 3h-5a3 3 0 0 1-3-3v-5a1 1 0 0 1 1-1h9a1 1 0 0 1 1 1Zm0 0h2a1 1 0 0 1 1 1v2a1 1 0 0 1-1 1h-2M4.5 4V2m3 2V0" stroke="#000"/>
</svg>
